X: 1
T: LINCOLN'S -- HORNPIPE
B: Ryan's Mammoth Collection of Fiddle Tunes
R: hornpipe
M: C|
L: 1/8
T: (Can be used as a Clog.)
Z: Contributed 20010926181357 by John Chambers jmchambers:rcn.net
K: A
uE2 \
| A2c>A E>Ac>A | G>AB>G A2c2 | f>ed>c d>cB>A | G>AB>G E>dc>B |
| A2c>A E>Ac>A | G>AB>G A2c2 | d>fe>d c>BA>G | A2c2A2 :|
|: uc>d \
| e>Ac>e a>gf>e | G>AB>c d>EF>G | A,>CE>A F>cB>A | G>AB>G E2c>d |
| e>Ac>e a>gf>e | f>Bd>f b>ag>f | c>eA>c B>dG>B | A2c2A2 :|
